icons/folder-4-fill.svg

<svg viewBox="0 0 24 24" fill="currentColor" xmlns="http://www.w3.org/2000/svg"><path d="M8 21V11H22V20C22 20.5523 21.5523 21 21 21H8ZM6 21H3C2.44772 21 2 20.5523 2 20V4C2 3.44772 2.44772 3 3 3H10.4142L12.4142 5H21C21.5523 5 22 5.44772 22 6V9H7C6.44772 9 6 9.44772 6 10V21Z"/></svg>

<svg xmlns="http://www.w3.org/2000/svg" viewBox="0 0 24 24">
    <g>
        <path fill="none" d="M0 0h24v24H0z"/>
        <path d="M8 21V11h14v9a1 1 0 0 1-1 1H8zm-2 0H3a1 1 0 0 1-1-1V4a1 1 0 0 1 1-1h7.414l2 2H21a1 1 0 0 1 1 1v3H7a1 1 0 0 0-1 1v11z"/>
    </g>
</svg>
